src/pos-icons/temperature-kelvin.svg

<svg height="24" viewBox="0 0 24 24" width="24" xmlns="http://www.w3.org/2000/svg"><path d="m7 5h3v6l5-6h4l-5.12 5.78 5.12 9.22h-3.62l-3.62-6.83-1.76 1.98v4.85h-3z"/></svg>

<?xml version="1.0" encoding="UTF-8"?><!DOCTYPE svg PUBLIC "-//W3C//DTD SVG 1.1//EN" "http://www.w3.org/Graphics/SVG/1.1/DTD/svg11.dtd"><svg xmlns="http://www.w3.org/2000/svg" xmlns:xlink="http://www.w3.org/1999/xlink" version="1.1" id="mdi-temperature-kelvin" width="24" height="24" viewBox="0 0 24 24"><path d="M7,5H10V11L15,5H19L13.88,10.78L19,20H15.38L11.76,13.17L10,15.15V20H7V5Z" /></svg>
